resources/haticons/SVG/hourglass_empty.svg

<!-- Generated by IcoMoon.io -->
<svg version="1.1" xmlns="http://www.w3.org/2000/svg" width="24" height="24" viewBox="0 0 24 24">
<title>hourglass_empty</title>
<path d="M12 11.484l3.984-3.984v-3.516h-7.969v3.516zM15.984 16.5l-3.984-3.984-3.984 3.984v3.516h7.969v-3.516zM6 2.016h12v6l-3.984 3.984 3.984 3.984v6h-12v-6l3.984-3.984-3.984-3.984v-6z"></path>
</svg>

<svg xmlns="http://www.w3.org/2000/svg" width="24" height="24"><path d="M12 11.484L15.984 7.5V3.984H8.015V7.5zm3.984 5.016L12 12.516 8.016 16.5v3.516h7.969V16.5zM6 2.016h12v6L14.016 12 18 15.984v6H6v-6L9.984 12 6 8.016v-6z"/></svg>
